X:1
T:Pescadores, 11.11.11.11
T:Pescadores, 11.11.11.11
T:Robert Lowry, 1875
T:Public Domain Courtesy of the Cyber Hymnal™
C:Robert Lowry, 1875
Z:Public Domain
Z:Courtesy of the Cyber Hymnal™
%%score ( 1 2 ) 3
L:1/8
Q:1/4=100
M:3/4
K:Eb
V:1 treble 
V:2 treble 
V:3 bass 
V:1
 E>E E2 [DF]2 | [EG]>[EG] [EB]4 | E4 [EG]2 | [DF]2 E4 | E>E E2 [DF]2 | [EG]>[EG] [GB]4 | %6
 [FB]4 [EG]2 | [EG]2 [DF]4 | [FA]>[EG] [FA]2 [DF]2 | [EG]>[FA] [GB]4 | (c2 d2) [Ge]2 | %11
 [EG]2 [DF]4 | [DG]>[DF] E2 [DF]2 | [EG]>[EB] [Ec]4 | [EB]4 [EG]2 | [DF]2 E4 |] %16
V:2
 E>E E2 x2 | x6 | E4 x2 | x2 E4 | E>E E2 x2 | x6 | x6 | x6 | x6 | x6 | A4 x2 | x6 | x2 E2 x2 | x6 | %14
 x6 | x2 E4 |] %16
V:3
 [E,G,]>[E,G,] [E,G,]2 [B,,B,]2 | [E,B,]>[E,B,] [E,G,]4 | [E,G,]4 [E,B,]2 | [B,,A,]2 [E,G,]4 | %4
 [E,G,]>[E,G,] [E,G,]2 [B,,B,]2 | [E,B,]>[E,B,] [E,E]4 | [D,B,]4 [E,B,]2 | [B,,B,]2 [B,,B,]4 | %8
 [B,,B,]>[B,,B,] [B,,B,]2 [B,,B,]2 | [E,B,]>[E,B,] [E,E]4 | ([A,E]2 [F,B,]2) [E,B,]2 | %11
 [B,,B,]2 [B,,B,]4 | [B,,B,]>[B,,A,] [C,G,]2 [B,,B,]2 | [E,B,]>[E,G,] [A,,A,]4 | %14
 [B,,G,]4 [B,,B,]2 | [B,,A,]2 [E,G,]4 |] %16

